packages/devextreme-scss/images/icons/fluent/sparkle.svg

<svg width="20" height="20" viewBox="0 0 20 20" fill="none" xmlns="http://www.w3.org/2000/svg">
<path d="M7.39804 12.8085C7.57428 12.9328 7.78476 12.9994 8.00043 12.999C8.21633 12.9992 8.42686 12.9317 8.60243 12.806C8.77993 12.6755 8.91464 12.4952 8.98943 12.288L9.43643 10.915C9.55086 10.5707 9.74391 10.2578 10.0003 10.0011C10.2566 9.74436 10.5693 9.55089 10.9134 9.436L12.3044 8.98499C12.4564 8.93064 12.5936 8.84184 12.7055 8.72555C12.8174 8.60926 12.9008 8.46865 12.9492 8.31473C12.9977 8.1608 13.0098 7.99776 12.9847 7.83836C12.9596 7.67897 12.8979 7.52756 12.8044 7.396C12.6703 7.21007 12.4794 7.07283 12.2604 7.005L10.8854 6.558C10.5409 6.44377 10.2278 6.2508 9.97087 5.99441C9.71396 5.73803 9.52035 5.42528 9.40543 5.081L8.95343 3.693C8.88113 3.49069 8.74761 3.31593 8.57143 3.193C8.43877 3.09927 8.28607 3.03779 8.12548 3.01344C7.96489 2.9891 7.80083 3.00256 7.64636 3.05275C7.49188 3.10295 7.35125 3.1885 7.23564 3.3026C7.12004 3.41669 7.03265 3.55619 6.98043 3.71L6.52343 5.11C6.40884 5.44482 6.21967 5.74923 5.97022 6.00025C5.72076 6.25126 5.41753 6.44232 5.08343 6.559L3.69243 7.007C3.54065 7.06139 3.40352 7.15017 3.29177 7.26638C3.18001 7.3826 3.09666 7.5231 3.04824 7.67688C2.99982 7.83067 2.98764 7.99357 3.01265 8.15285C3.03767 8.31213 3.0992 8.46346 3.19243 8.595C3.32027 8.77445 3.50105 8.90942 3.70943 8.981L5.08343 9.42599C5.52354 9.57248 5.90999 9.84682 6.19343 10.214C6.35585 10.4246 6.4813 10.6613 6.56443 10.914L7.01643 12.305C7.08846 12.5083 7.22179 12.6842 7.39804 12.8085ZM13.5353 16.851C13.6713 16.9472 13.8337 16.9989 14.0003 16.999C14.1654 16.9991 14.3264 16.9481 14.4613 16.853C14.6008 16.7545 14.7058 16.6146 14.7613 16.453L15.0093 15.691C15.0625 15.5326 15.1515 15.3885 15.2693 15.27C15.3867 15.1515 15.5307 15.0627 15.6893 15.011L16.4613 14.759C16.619 14.7045 16.7557 14.6021 16.8523 14.466C16.9257 14.363 16.9736 14.2441 16.9921 14.119C17.0106 13.9939 16.9992 13.8662 16.9588 13.7463C16.9184 13.6265 16.8501 13.518 16.7597 13.4296C16.6692 13.3412 16.5591 13.2756 16.4383 13.238L15.6743 12.989C15.5162 12.9365 15.3724 12.8478 15.2544 12.7302C15.1364 12.6125 15.0473 12.469 14.9943 12.311L14.7423 11.538C14.6886 11.3802 14.586 11.2436 14.4493 11.148C14.3473 11.0751 14.2295 11.0271 14.1056 11.0081C13.9816 10.989 13.8549 10.9994 13.7357 11.0383C13.6164 11.0772 13.508 11.1436 13.4192 11.2322C13.3304 11.3207 13.2636 11.4289 13.2243 11.548L12.9773 12.31C12.925 12.4677 12.8375 12.6113 12.7213 12.73C12.6066 12.8465 12.4667 12.9351 12.3123 12.989L11.5393 13.241C11.3803 13.2949 11.2422 13.3975 11.1447 13.5343C11.0472 13.671 10.9952 13.835 10.9961 14.0029C10.997 14.1708 11.0507 14.3342 11.1496 14.47C11.2486 14.6057 11.3877 14.7068 11.5473 14.759L12.3103 15.006C12.4692 15.0594 12.6136 15.1487 12.7323 15.267C12.8505 15.3853 12.939 15.5299 12.9903 15.689L13.2433 16.463C13.2981 16.6195 13.4001 16.7551 13.5353 16.851Z" fill="black"/>
</svg>

<!-- Generated by IcoMoon.io -->
<svg version="1.1" xmlns="http://www.w3.org/2000/svg" width="20" height="20" viewBox="0 0 20 20">
<path d="M7.398 12.808c0.176 0.124 0.387 0.191 0.602 0.191s0.426-0.067 0.602-0.193c0.178-0.131 0.312-0.311 0.387-0.518l0.447-1.373c0.114-0.344 0.307-0.657 0.564-0.914s0.569-0.45 0.913-0.565l1.391-0.451c0.152-0.054 0.289-0.143 0.401-0.259s0.195-0.257 0.244-0.411c0.048-0.154 0.061-0.317 0.036-0.476s-0.087-0.311-0.18-0.442c-0.134-0.186-0.325-0.323-0.544-0.391l-1.375-0.447c-0.344-0.114-0.658-0.307-0.915-0.564s-0.451-0.569-0.565-0.913l-0.452-1.388c-0.072-0.202-0.206-0.377-0.382-0.5-0.133-0.094-0.285-0.155-0.446-0.18s-0.325-0.011-0.479 0.039c-0.154 0.050-0.295 0.136-0.411 0.25s-0.203 0.254-0.255 0.407l-0.457 1.4c-0.115 0.335-0.304 0.639-0.553 0.89s-0.553 0.442-0.887 0.559l-1.391 0.448c-0.152 0.054-0.289 0.143-0.401 0.259s-0.195 0.257-0.244 0.411c-0.048 0.154-0.061 0.317-0.036 0.476s0.087 0.311 0.18 0.442c0.128 0.179 0.309 0.314 0.517 0.386l1.374 0.445c0.44 0.146 0.827 0.421 1.11 0.788 0.162 0.211 0.288 0.447 0.371 0.7l0.452 1.391c0.072 0.203 0.205 0.379 0.382 0.503zM13.535 16.851c0.136 0.096 0.298 0.148 0.465 0.148 0.165 0 0.326-0.051 0.461-0.146 0.139-0.098 0.244-0.238 0.3-0.4l0.248-0.762c0.053-0.158 0.142-0.303 0.26-0.421s0.261-0.207 0.42-0.259l0.772-0.252c0.158-0.054 0.294-0.157 0.391-0.293 0.073-0.103 0.121-0.222 0.14-0.347s0.007-0.253-0.033-0.373c-0.040-0.12-0.109-0.228-0.199-0.317s-0.201-0.154-0.321-0.192l-0.764-0.249c-0.158-0.053-0.302-0.141-0.42-0.259s-0.207-0.261-0.26-0.419l-0.252-0.773c-0.054-0.158-0.156-0.294-0.293-0.39-0.102-0.073-0.22-0.121-0.344-0.14s-0.251-0.009-0.37 0.030c-0.119 0.039-0.228 0.105-0.317 0.194s-0.156 0.197-0.195 0.316l-0.247 0.762c-0.052 0.158-0.14 0.301-0.256 0.42-0.115 0.117-0.255 0.205-0.409 0.259l-0.773 0.252c-0.159 0.054-0.297 0.157-0.395 0.293s-0.149 0.301-0.149 0.469 0.055 0.331 0.153 0.467c0.099 0.136 0.238 0.237 0.398 0.289l0.763 0.247c0.159 0.053 0.303 0.143 0.422 0.261s0.207 0.263 0.258 0.422l0.253 0.774c0.055 0.157 0.157 0.292 0.292 0.388z"></path>
</svg>
